app/dist/common/images/freedom-acquisition-i.svg

<svg height="18" viewBox="0 0 18 18" width="18" xmlns="http://www.w3.org/2000/svg"><path d="m0 0h18v18h-18z" fill="#f0f3fa"/><path d="m5.45 8.05h2.34l1.19-2.05h2.33l-1.09-1.95h-2.42l-2.34 4zm-2.45 3.98 1.2 2 2.1-3.65h2.4l1.11-2h-4.59zm7.26-4.03h-2l1-1.62h2.31l3.43 5.64-1.2 2.03-1.2-2.05h-4.32l1.16-2h2l-1.17-2z" fill="#77bec2"/></svg>

<!-- by TradingView --><svg width="18" height="18" viewBox="0 0 18 18" xmlns="http://www.w3.org/2000/svg"><path fill="#F0F3FA" d="M0 0h18v18H0z"/><path d="M5.45 8.05h2.34L8.98 6h2.33l-1.09-1.95H7.8l-2.34 4ZM3 12.03l1.2 2 2.1-3.65h2.4l1.11-2H5.22L3 12.03ZM10.26 8h-2l1-1.62h2.31L15 12.02l-1.2 2.03L12.6 12H8.28l1.16-2h2l-1.17-2Z" fill="#77BEC2"/></svg>
